Newaita-dark/mimetypes/48/payment-card-unionpay.svg

<svg height="48pt" viewBox="0 0 48 48" width="48pt" xmlns="http://www.w3.org/2000/svg" xmlns:xlink="http://www.w3.org/1999/xlink"><linearGradient id="a" gradientUnits="userSpaceOnUse" x1="24.807067" x2="24.807067" y1="39.0740565" y2="41.05862231253"><stop offset="0" stop-opacity=".27451"/><stop offset="1" stop-opacity="0"/></linearGradient><linearGradient id="b"><stop offset="0" stop-opacity=".313725"/><stop offset=".222222" stop-opacity=".27451"/><stop offset="1" stop-opacity="0"/></linearGradient><radialGradient id="c" cx="450.90894" cy="189.57936" gradientTransform="matrix(.00000026 -.117199 -.210958 -.00000015 80.18054 92.416155)" gradientUnits="userSpaceOnUse" r="21.166656" xlink:href="#b"/><radialGradient id="d" cx="450.90894" cy="189.57936" gradientTransform="matrix(-.00000026 .117199 .210958 .00000015 -32.550992 -14.268065)" gradientUnits="userSpaceOnUse" r="21.166656" xlink:href="#b"/><radialGradient id="e" cx="450.90894" cy="189.57936" gradientTransform="matrix(-.00000026 -.117199 .210958 -.00000015 -32.550992 92.416155)" gradientUnits="userSpaceOnUse" r="21.166656" xlink:href="#b"/><radialGradient id="f" cx="450.90894" cy="189.57936" gradientTransform="matrix(.00000026 .117199 -.210958 .00000015 80.180537 -14.268066)" gradientUnits="userSpaceOnUse" r="21.166656" xlink:href="#b"/><linearGradient id="g" gradientUnits="userSpaceOnUse" x1="23.814786" x2="23.814786" y1="46.02003312506" y2="2.35959181253"><stop offset="0" stop-color="#f44336"/><stop offset="1" stop-color="#ef5350"/></linearGradient><linearGradient id="h" gradientUnits="userSpaceOnUse" x1="23.814816" x2="23.814816" y1="46.02010269922" y2="2.35960449139"><stop offset="0" stop-color="#5c6bc0"/><stop offset="1" stop-color="#7986cb"/></linearGradient><linearGradient id="i" gradientUnits="userSpaceOnUse" x1="35.722224" x2="35.722224" y1="46.02010269922" y2="2.35960449139"><stop offset="0" stop-color="#26a69a"/><stop offset="1" stop-color="#4db6ac"/></linearGradient><path d="m6.945312 39.074219h33.738282v1.984375h-33.738282zm0 0" fill="url(#a)"/><path d="m40.683594 39.074219h3.96875v-1.984375h-3.96875zm0 0" fill="url(#c)"/><path d="m6.945312 39.074219h-3.96875v1.984375h3.96875zm0 0" fill="url(#d)"/><path d="m6.945312 39.074219h-3.96875v-1.984375h3.96875zm0 0" fill="url(#e)"/><path d="m40.683594 39.074219h3.96875v1.984375h-3.96875zm0 0" fill="url(#f)"/><path d="m5.953125 9.304688h35.722656c1.097657 0 1.984375.890624 1.984375 1.984374v25.800782c0 1.09375-.886718 1.984375-1.984375 1.984375h-35.722656c-1.09375 0-1.984375-.890625-1.984375-1.984375v-25.800782c0-1.09375.890625-1.984374 1.984375-1.984374zm0 0" fill="url(#g)"/><path d="m18.851562 9.304688c-1.097656 0-1.984374.886718-1.984374 1.984374v25.800782c0 1.097656.886718 1.984375 1.984374 1.984375h22.824219c1.097657 0 1.984375-.886719 1.984375-1.984375v-25.800782c0-1.097656-.886718-1.984374-1.984375-1.984374zm0 0" fill="url(#h)"/><path d="m32.746094 9.304688c-1.101563 0-1.984375.886718-1.984375 1.984374v25.800782c0 1.097656.882812 1.984375 1.984375 1.984375h8.929687c1.097657 0 1.984375-.886719 1.984375-1.984375v-25.800782c0-1.097656-.886718-1.984374-1.984375-1.984374zm0 0" fill="url(#i)"/><path d="m5.953125 9.304688c-1.097656 0-1.984375.886718-1.984375 1.984374v.496094c0-1.097656.886719-1.984375 1.984375-1.984375h35.722656c1.097657 0 1.984375.886719 1.984375 1.984375v-.496094c0-1.097656-.886718-1.984374-1.984375-1.984374zm0 0" fill="#fff" fill-opacity=".588235"/><path d="m3.96875 36.609375v.480469c0 1.097656.886719 1.984375 1.984375 1.984375h35.722656c1.097657 0 1.984375-.886719 1.984375-1.984375v-.480469c0 1.101563-.886718 1.984375-1.984375 1.984375h-35.722656c-1.097656 0-1.984375-.882812-1.984375-1.984375zm0 0" fill-opacity=".235294"/><path d="m63.493937-115.759477h381.005282c11.707215 0 21.164646 9.499093 21.164646 21.164646v275.182054c0 11.665553-9.457431 21.164646-21.164646 21.164646h-381.005282c-11.665553 0-21.164646-9.499093-21.164646-21.164646v-275.182054c0-11.665553 9.499093-21.164646 21.164646-21.164646zm0 0" fill="none" stroke="#212121" stroke-linecap="round" stroke-linejoin="round" stroke-width="3" transform="matrix(.093759 0 0 .093759 0 20.158175)"/></svg>

<?xml version="1.0" encoding="UTF-8"?>
<svg xmlns="http://www.w3.org/2000/svg" xmlns:xlink="http://www.w3.org/1999/xlink" width="48pt" height="48pt" viewBox="0 0 48 48" version="1.1">
<defs>
<linearGradient id="linear0" gradientUnits="userSpaceOnUse" x1="254" y1="233.5" x2="254" y2="254.66667" gradientTransform="matrix(0.093759,0,0,0.093759,0.992281,17.18133)">
<stop offset="0" style="stop-color:rgb(0%,0%,0%);stop-opacity:0.27451;"/>
<stop offset="1" style="stop-color:rgb(0%,0%,0%);stop-opacity:0;"/>
</linearGradient>
<radialGradient id="radial0" gradientUnits="userSpaceOnUse" cx="450.90894" cy="189.57936" fx="450.90894" fy="189.57936" r="21.166656" gradientTransform="matrix(0.000000261256,-0.117199,-0.210958,-0.000000152308,80.18054,92.416155)">
<stop offset="0" style="stop-color:rgb(0%,0%,0%);stop-opacity:0.313725;"/>
<stop offset="0.222222" style="stop-color:rgb(0%,0%,0%);stop-opacity:0.27451;"/>
<stop offset="1" style="stop-color:rgb(0%,0%,0%);stop-opacity:0;"/>
</radialGradient>
<radialGradient id="radial1" gradientUnits="userSpaceOnUse" cx="450.90894" cy="189.57936" fx="450.90894" fy="189.57936" r="21.166656" gradientTransform="matrix(-0.000000261256,0.117199,0.210958,0.000000152308,-32.550992,-14.268065)">
<stop offset="0" style="stop-color:rgb(0%,0%,0%);stop-opacity:0.313725;"/>
<stop offset="0.222222" style="stop-color:rgb(0%,0%,0%);stop-opacity:0.27451;"/>
<stop offset="1" style="stop-color:rgb(0%,0%,0%);stop-opacity:0;"/>
</radialGradient>
<radialGradient id="radial2" gradientUnits="userSpaceOnUse" cx="450.90894" cy="189.57936" fx="450.90894" fy="189.57936" r="21.166656" gradientTransform="matrix(-0.000000261256,-0.117199,0.210958,-0.000000152308,-32.550992,92.416155)">
<stop offset="0" style="stop-color:rgb(0%,0%,0%);stop-opacity:0.313725;"/>
<stop offset="0.222222" style="stop-color:rgb(0%,0%,0%);stop-opacity:0.27451;"/>
<stop offset="1" style="stop-color:rgb(0%,0%,0%);stop-opacity:0;"/>
</radialGradient>
<radialGradient id="radial3" gradientUnits="userSpaceOnUse" cx="450.90894" cy="189.57936" fx="450.90894" fy="189.57936" r="21.166656" gradientTransform="matrix(0.000000261256,0.117199,-0.210958,0.000000152308,80.180537,-14.268066)">
<stop offset="0" style="stop-color:rgb(0%,0%,0%);stop-opacity:0.313725;"/>
<stop offset="0.222222" style="stop-color:rgb(0%,0%,0%);stop-opacity:0.27451;"/>
<stop offset="1" style="stop-color:rgb(0%,0%,0%);stop-opacity:0;"/>
</radialGradient>
<linearGradient id="linear1" gradientUnits="userSpaceOnUse" x1="254" y1="275.83334" x2="254" y2="-189.83333" gradientTransform="matrix(0.093759,0,0,0.093759,0,20.158175)">
<stop offset="0" style="stop-color:rgb(95.686275%,26.27451%,21.176471%);stop-opacity:1;"/>
<stop offset="1" style="stop-color:rgb(93.72549%,32.54902%,31.372549%);stop-opacity:1;"/>
</linearGradient>
<linearGradient id="linear2" gradientUnits="userSpaceOnUse" x1="960" y1="1855.1182" x2="960" y2="95.118111" gradientTransform="matrix(0.0248071,0,0,0.0248071,0,0)">
<stop offset="0" style="stop-color:rgb(36.078431%,41.960784%,75.294118%);stop-opacity:1;"/>
<stop offset="1" style="stop-color:rgb(47.45098%,52.54902%,79.607843%);stop-opacity:1;"/>
</linearGradient>
<linearGradient id="linear3" gradientUnits="userSpaceOnUse" x1="1440" y1="1855.1182" x2="1440" y2="95.118111" gradientTransform="matrix(0.0248071,0,0,0.0248071,0,0)">
<stop offset="0" style="stop-color:rgb(14.901961%,65.098039%,60.392157%);stop-opacity:1;"/>
<stop offset="1" style="stop-color:rgb(30.196078%,71.372549%,67.45098%);stop-opacity:1;"/>
</linearGradient>
</defs>
<g id="surface1">
<path style=" stroke:none;fill-rule:nonzero;fill:url(#linear0);" d="M 6.945312 39.074219 L 40.683594 39.074219 L 40.683594 41.058594 L 6.945312 41.058594 Z M 6.945312 39.074219 "/>
<path style=" stroke:none;fill-rule:nonzero;fill:url(#radial0);" d="M 40.683594 39.074219 L 44.652344 39.074219 L 44.652344 37.089844 L 40.683594 37.089844 Z M 40.683594 39.074219 "/>
<path style=" stroke:none;fill-rule:nonzero;fill:url(#radial1);" d="M 6.945312 39.074219 L 2.976562 39.074219 L 2.976562 41.058594 L 6.945312 41.058594 Z M 6.945312 39.074219 "/>
<path style=" stroke:none;fill-rule:nonzero;fill:url(#radial2);" d="M 6.945312 39.074219 L 2.976562 39.074219 L 2.976562 37.089844 L 6.945312 37.089844 Z M 6.945312 39.074219 "/>
<path style=" stroke:none;fill-rule:nonzero;fill:url(#radial3);" d="M 40.683594 39.074219 L 44.652344 39.074219 L 44.652344 41.058594 L 40.683594 41.058594 Z M 40.683594 39.074219 "/>
<path style=" stroke:none;fill-rule:nonzero;fill:url(#linear1);" d="M 5.953125 9.304688 L 41.675781 9.304688 C 42.773438 9.304688 43.660156 10.195312 43.660156 11.289062 L 43.660156 37.089844 C 43.660156 38.183594 42.773438 39.074219 41.675781 39.074219 L 5.953125 39.074219 C 4.859375 39.074219 3.96875 38.183594 3.96875 37.089844 L 3.96875 11.289062 C 3.96875 10.195312 4.859375 9.304688 5.953125 9.304688 Z M 5.953125 9.304688 "/>
<path style=" stroke:none;fill-rule:nonzero;fill:url(#linear2);" d="M 18.851562 9.304688 C 17.753906 9.304688 16.867188 10.191406 16.867188 11.289062 L 16.867188 37.089844 C 16.867188 38.1875 17.753906 39.074219 18.851562 39.074219 L 41.675781 39.074219 C 42.773438 39.074219 43.660156 38.1875 43.660156 37.089844 L 43.660156 11.289062 C 43.660156 10.191406 42.773438 9.304688 41.675781 9.304688 Z M 18.851562 9.304688 "/>
<path style=" stroke:none;fill-rule:nonzero;fill:url(#linear3);" d="M 32.746094 9.304688 C 31.644531 9.304688 30.761719 10.191406 30.761719 11.289062 L 30.761719 37.089844 C 30.761719 38.1875 31.644531 39.074219 32.746094 39.074219 L 41.675781 39.074219 C 42.773438 39.074219 43.660156 38.1875 43.660156 37.089844 L 43.660156 11.289062 C 43.660156 10.191406 42.773438 9.304688 41.675781 9.304688 Z M 32.746094 9.304688 "/>
<path style=" stroke:none;fill-rule:nonzero;fill:rgb(100%,100%,100%);fill-opacity:0.588235;" d="M 5.953125 9.304688 C 4.855469 9.304688 3.96875 10.191406 3.96875 11.289062 L 3.96875 11.785156 C 3.96875 10.6875 4.855469 9.800781 5.953125 9.800781 L 41.675781 9.800781 C 42.773438 9.800781 43.660156 10.6875 43.660156 11.785156 L 43.660156 11.289062 C 43.660156 10.191406 42.773438 9.304688 41.675781 9.304688 Z M 5.953125 9.304688 "/>
<path style=" stroke:none;fill-rule:nonzero;fill:rgb(0%,0%,0%);fill-opacity:0.235294;" d="M 3.96875 36.609375 L 3.96875 37.089844 C 3.96875 38.1875 4.855469 39.074219 5.953125 39.074219 L 41.675781 39.074219 C 42.773438 39.074219 43.660156 38.1875 43.660156 37.089844 L 43.660156 36.609375 C 43.660156 37.710938 42.773438 38.59375 41.675781 38.59375 L 5.953125 38.59375 C 4.855469 38.59375 3.96875 37.710938 3.96875 36.609375 Z M 3.96875 36.609375 "/>
<path style="fill:none;stroke-width:3;stroke-linecap:round;stroke-linejoin:round;stroke:rgb(12.941176%,12.941176%,12.941176%);stroke-opacity:1;stroke-miterlimit:4;" d="M 63.493937 -115.759477 L 444.499219 -115.759477 C 456.206434 -115.759477 465.663865 -106.260384 465.663865 -94.594831 L 465.663865 180.587223 C 465.663865 192.252776 456.206434 201.751869 444.499219 201.751869 L 63.493937 201.751869 C 51.828384 201.751869 42.329291 192.252776 42.329291 180.587223 L 42.329291 -94.594831 C 42.329291 -106.260384 51.828384 -115.759477 63.493937 -115.759477 Z M 63.493937 -115.759477 " transform="matrix(0.093759,0,0,0.093759,0,20.158175)"/>
</g>
</svg>
